X:36
T:Tune
R:waltz
M:3/4
L:1/8
K:D
(3FGA | D2- DC DE | D2- DE FA | G2 ED EF | E4 (3EFG | C2- CB, CD | C2- CA BA
|1 FF DD CC | B,B, A,A, (3FGA :|2 FA, B,C B,A, | D4 (3B,CB, |:
A,2 F2 (3EFE | D4 (3CDC | B,2 G2 (3FGF | E4 (3DED | C2 cc BB | AA BB AA
|1 GG EE AA | FF DD B,B,:|2 GB, B,C B,A, | D4 (3FGA |]
